ui/StatusQ/src/assets/img/icons/messageActive.svg

<svg fill="none" height="16" viewBox="0 0 16 16" width="16" xmlns="http://www.w3.org/2000/svg"><path clip-rule="evenodd" d="m13.6666 12.4445v-4.44446c0-3.12961-2.5371-5.66667-5.66668-5.66667-3.12961 0-5.66667 2.53706-5.66667 5.66667 0 3.12966 2.53706 5.66666 5.66667 5.66666h4.44448c.675 0 1.2222-.5472 1.2222-1.2222zm-5.66668-11.11113c-3.6819 0-6.66667 2.98477-6.66667 6.66667 0 3.68186 2.98477 6.66666 6.66667 6.66666h4.44448c1.2273 0 2.2222-.9949 2.2222-2.2222v-4.44446c0-3.6819-2.9848-6.66667-6.66668-6.66667z" fill="#4360df" fill-rule="evenodd"/></svg>

<svg width="16" height="16" viewBox="0 0 16 16" fill="none" xmlns="http://www.w3.org/2000/svg">
<path fill-rule="evenodd" clip-rule="evenodd" d="M13.6666 12.4445V8.00004C13.6666 4.87043 11.1295 2.33337 7.99992 2.33337C4.87031 2.33337 2.33325 4.87043 2.33325 8.00004C2.33325 11.1297 4.87031 13.6667 7.99992 13.6667H12.4444C13.1194 13.6667 13.6666 13.1195 13.6666 12.4445ZM7.99992 1.33337C4.31802 1.33337 1.33325 4.31814 1.33325 8.00004C1.33325 11.6819 4.31802 14.6667 7.99992 14.6667H12.4444C13.6717 14.6667 14.6666 13.6718 14.6666 12.4445V8.00004C14.6666 4.31814 11.6818 1.33337 7.99992 1.33337Z" fill="#4360DF"/>
</svg>
